X: 84
T:OCB Reel #01
R:reel
Z:added by Alf 
M:4/4
L:1/8
K:G
|: d2Bd edBd|edBA G3F|EAAA BAGA|Bdef g2e2|
d2Bd edBd|edBA G3F|EAAA BAAe|dBAB G4:|
|:Bdef g2fg|agfg e2dA|Bdef g2bg|agab g2ga|
bggg agef|g2ge dBGE|DEGA B2Be|dBAB G4:|
